images/illus_card_swipe.svg

<svg width="200" height="200" viewBox="0 0 200 200" fill="none" xmlns="http://www.w3.org/2000/svg">
<g id="illus_card_swipe">
<path id="Fill 2" fill-rule="evenodd" clip-rule="evenodd" d="M113.295 79.6665C113.295 82.2535 111.768 85.2515 109.901 86.3295L77.0869 105.269C75.2199 106.347 73.6919 105.112 73.6919 102.525L73.6889 77.4405C73.6889 74.8545 75.2159 71.8555 77.0829 70.7785L109.897 51.8385C111.764 50.7605 113.292 51.9955 113.292 54.5825L113.295 79.6665Z" fill="#32BBAB"/>
<path id="Fill 4" fill-rule="evenodd" clip-rule="evenodd" d="M89.5303 69.8652C89.5303 70.7272 89.0213 71.7272 88.3993 72.0862L78.2153 77.9642C77.5923 78.3232 77.0833 77.9122 77.0833 77.0502C77.0833 76.1872 77.5923 75.1882 78.2153 74.8282L88.3983 68.9502C89.0213 68.5912 89.5303 69.0032 89.5303 69.8652" fill="#FCF8EE"/>
<path id="Fill 6" fill-rule="evenodd" clip-rule="evenodd" d="M82.7427 88.6777C82.7427 88.2467 82.4887 88.0407 82.1767 88.2207L77.6507 90.8327C77.3397 91.0127 77.0847 91.5117 77.0857 91.9437C77.0857 92.3747 77.3397 92.5807 77.6507 92.4007L82.1777 89.7887C82.4887 89.6087 82.7427 89.1087 82.7427 88.6777" fill="#FCF8EE"/>
<path id="Fill 8" fill-rule="evenodd" clip-rule="evenodd" d="M91.7949 83.4531C91.7949 83.0221 91.5409 82.8161 91.2289 82.9951L86.7029 85.6081C86.3919 85.7871 86.1369 86.2871 86.1369 86.7191C86.1369 87.1501 86.3919 87.3551 86.7029 87.1761L91.2299 84.5631C91.5409 84.3841 91.7949 83.8841 91.7949 83.4531" fill="#FCF8EE"/>
<path id="Fill 10" fill-rule="evenodd" clip-rule="evenodd" d="M100.847 78.228C100.847 77.797 100.592 77.591 100.281 77.771L95.7552 80.383C95.4442 80.563 95.1892 81.062 95.1892 81.494C95.1892 81.925 95.4442 82.13 95.7552 81.951L100.281 79.338C100.593 79.159 100.847 78.659 100.847 78.228" fill="#FCF8EE"/>
<path id="Fill 12" fill-rule="evenodd" clip-rule="evenodd" d="M109.899 73.0034C109.899 72.5724 109.644 72.3664 109.333 72.5454L104.807 75.1584C104.496 75.3374 104.241 75.8374 104.241 76.2684C104.241 76.6994 104.496 76.9054 104.807 76.7264L109.333 74.1134C109.644 73.9344 109.899 73.4344 109.899 73.0034" fill="#FCF8EE"/>
<path id="Fill 14" fill-rule="evenodd" clip-rule="evenodd" d="M82.7417 80.0552C82.7417 79.1932 82.2327 78.7812 81.6107 79.1402L78.2157 81.0992C77.5937 81.4592 77.0837 82.4582 77.0847 83.3212V86.4562C77.0847 87.3182 77.5937 87.7302 78.2167 87.3712L81.6107 85.4112C82.2337 85.0522 82.7417 84.0532 82.7417 83.1912V80.0552Z" fill="#FCF8EE"/>
<path id="Fill 16" fill-rule="evenodd" clip-rule="evenodd" d="M68.5986 92.9224C68.5986 92.0564 68.0916 91.6474 67.4666 92.0074L44.8366 105.069C44.2116 105.43 43.7046 106.424 43.7046 107.291C43.7046 108.156 44.2116 108.566 44.8366 108.205L67.4676 95.1434C68.0916 94.7824 68.5986 93.7884 68.5986 92.9224M68.5986 100.761C68.5986 99.8954 68.0926 99.4854 67.4676 99.8464L57.2846 105.724C56.6596 106.085 56.1526 107.079 56.1526 107.945C56.1526 108.811 56.6596 109.22 57.2846 108.86L67.4676 102.982C68.0926 102.621 68.5996 101.627 68.5986 100.761M67.4666 87.3044L51.6246 96.4474C50.9996 96.8084 50.4936 96.3994 50.4936 95.5334C50.4936 94.6674 50.9996 93.6724 51.6246 93.3124L67.4656 84.1694C68.0906 83.8084 68.5976 84.2174 68.5976 85.0834C68.5976 85.9494 68.0916 86.9434 67.4666 87.3044" fill="#32BBAB"/>
<path id="Fill 18" opacity="0.5" fill-rule="evenodd" clip-rule="evenodd" d="M123.488 148.235C122.344 148.896 120.473 148.896 119.33 148.235L88.8398 130.627C87.6958 129.966 87.6958 128.886 88.8398 128.226L110.668 115.62C111.811 114.96 113.682 114.96 114.826 115.62L145.316 133.228C146.46 133.888 146.46 134.969 145.316 135.629L123.488 148.235Z" fill="#32BBAB"/>
<path id="Fill 20" opacity="0.5" fill-rule="evenodd" clip-rule="evenodd" d="M123.141 101.613C122.95 101.502 122.64 101.502 122.448 101.613L117.216 104.634C115.291 103.726 112.463 103.778 110.668 104.814C108.873 105.851 108.784 107.485 110.356 108.596L80.5241 125.824C80.3321 125.935 80.6791 125.914 80.8701 126.024C81.0611 126.135 81.0251 126.335 81.2171 126.224L111.049 108.996C112.974 109.904 115.803 109.853 117.598 108.816C119.392 107.78 119.481 106.146 117.909 105.035L123.141 102.013C123.332 101.903 123.332 101.723 123.141 101.613" fill="#32BBAB"/>
<path id="Fill 22" opacity="0.5" fill-rule="evenodd" clip-rule="evenodd" d="M134.575 117.821L120.716 109.817C120.429 109.652 120.429 109.383 120.716 109.217C121.003 109.051 121.468 109.051 121.755 109.217L135.615 117.22C135.902 117.386 135.901 117.655 135.615 117.821C135.327 117.987 134.862 117.987 134.575 117.821" fill="#32BBAB"/>
<path id="Fill 24" opacity="0.5" fill-rule="evenodd" clip-rule="evenodd" d="M137.001 121.623L118.637 111.018C118.446 110.908 118.446 110.728 118.637 110.618C118.829 110.507 119.139 110.507 119.331 110.618L137.694 121.223C137.885 121.333 137.885 121.512 137.694 121.623C137.502 121.733 137.192 121.733 137.001 121.623" fill="#32BBAB"/>
</g>
</svg>

<svg width="200" height="200" xmlns="http://www.w3.org/2000/svg"><g fill="none" fill-rule="evenodd"><path d="M0 200h200V0H0z"/><path d="M113.295 79.666c0 2.588-1.527 5.585-3.394 6.663l-32.814 18.94c-1.867 1.078-3.395-.157-3.395-2.744l-.003-25.085c0-2.585 1.527-5.584 3.394-6.662l32.814-18.94c1.867-1.078 3.395.157 3.395 2.745l.003 25.084z" fill="#32BBAB"/><path d="M89.53 69.865c0 .862-.509 1.862-1.13 2.221l-10.185 5.878c-.623.36-1.132-.052-1.132-.914 0-.863.51-1.862 1.132-2.222l10.183-5.878c.623-.359 1.132.053 1.132.915M82.743 88.678c0-.431-.254-.637-.566-.457l-4.526 2.612c-.311.18-.566.679-.565 1.11 0 .432.254.638.565.458l4.527-2.612c.31-.18.565-.68.565-1.111M91.795 83.453c0-.43-.254-.637-.566-.458l-4.526 2.613c-.311.18-.566.68-.566 1.111 0 .431.255.636.566.457l4.527-2.613c.31-.179.565-.679.565-1.11M100.847 78.228c0-.431-.255-.637-.566-.457l-4.526 2.612c-.31.18-.566.679-.566 1.111 0 .431.255.636.566.457l4.526-2.613c.312-.179.566-.679.566-1.11M109.9 73.003c0-.43-.256-.637-.567-.458l-4.526 2.613c-.31.18-.566.68-.566 1.11 0 .431.255.637.566.458l4.526-2.613c.311-.179.566-.679.566-1.11M82.742 80.055c0-.862-.51-1.274-1.131-.915l-3.395 1.96c-.622.36-1.132 1.358-1.131 2.221v3.135c0 .862.509 1.274 1.132.915l3.394-1.96c.623-.359 1.13-1.358 1.13-2.22v-3.136z" fill="#FCF8EE"/><path d="M68.599 92.922c0-.866-.507-1.275-1.132-.915l-22.63 13.062c-.625.361-1.132 1.355-1.132 2.222 0 .865.507 1.275 1.132.914l22.63-13.062c.625-.36 1.132-1.355 1.132-2.22m0 7.838c0-.866-.506-1.276-1.131-.915l-10.183 5.878c-.625.361-1.132 1.355-1.132 2.221 0 .866.507 1.275 1.132.915l10.183-5.878c.625-.36 1.132-1.355 1.13-2.22m-1.131-13.458l-15.842 9.143c-.625.361-1.131-.048-1.131-.914s.506-1.86 1.13-2.22l15.842-9.144c.625-.36 1.132.048 1.132.914s-.506 1.86-1.131 2.221" fill="#32BBAB"/><path d="M123.488 148.235c-1.144.66-3.015.66-4.158 0l-30.49-17.608c-1.144-.661-1.144-1.741 0-2.401l21.828-12.606c1.143-.66 3.014-.66 4.158 0l30.49 17.608c1.144.66 1.144 1.74 0 2.4l-21.828 12.607zM123.141 101.613a.763.763 0 0 0-.693 0l-5.232 3.021c-1.925-.908-4.753-.856-6.548.18-1.795 1.037-1.884 2.671-.312 3.782l-29.832 17.228c-.192.111.155.09.346.2.191.111.155.311.347.2l29.832-17.228c1.925.908 4.754.857 6.55-.18 1.793-1.036 1.882-2.67.31-3.78l5.232-3.023c.191-.11.191-.29 0-.4M134.575 117.82l-13.859-8.003c-.287-.165-.287-.434 0-.6.287-.166.752-.166 1.04 0l13.86 8.003c.286.166.285.435 0 .6-.289.167-.754.167-1.04 0M137 121.623l-18.364-10.605c-.19-.11-.19-.29 0-.4a.765.765 0 0 1 .695 0l18.362 10.605c.191.11.191.289 0 .4a.769.769 0 0 1-.693 0" fill="#32BBAB" opacity=".5"/></g></svg>
